X: 128
T: Watch Your Horses
C: Teton Sioux band 1911-1914
N: Derived from sioux127.krn
O: South Dakota, U.S.A.
N: Teton Sioux Music by Frances Densmore, 1918
Z: transcribed to **kern format by Craig Sapp
L: 1/8
M: 2/4
Q: 1/4=58
K: Ab clef=bass
%%linebreak <none>
F, [I:setbarnb 1]| 
F2F2 ||  
[M:3/4]F2>C2C2 ||  
[M:2/4]C2C2 ||  
[M:3/4]F> C C C B,3/ B,/ ||  
[M:2/4]A,2F,2 | 
B,2B,2 | 
D> B, B, B, | 
A,2F,2 | 
B,> B, (3A, F, F, ||  
[M:3/4]A,2F, A, F,3/ F,/ ||  
[M:2/4]F,3F, ||  
[M:3/4]F,6 | 
C C C C C3/ C/ | 
F (F/ C/) C C B,3/ B,/ ||  
[M:2/4]A,2F,2 ||  
[M:3/4]B,> B, B, B, B, B, ||  
[M:2/4]D (D/ B,/) B, B, | 
A,2F,2 | 
B,> B, (3A, F, F, ||  
[M:3/4]A,2F, A, F,3/ F,/ ||  
[M:2/4]F,4 | 
F,2z :|]  



